X: 38447
T: Staten Island
R: hornpipe
M: 4/4
K: Dmajor
AF|:DEFG (3AAA FA|dfec dcBA|GABd AFDF|G2 E2 E2 AF|
DE (3FFG ADFA|dfec dcBA|(3GGG Bd efge|1 eA (3cBA d2 AF:|2 eA (3cBA d2 (efg||
|:a2 fa g2 eg|fedf ecAB|=c2 c2 efge|=cBcd efge|
(3aaa fa (3ggg eg|fedf ecAc|(3ddd fd efge|1 eA (3cBA d2 (3efg:|eA (3cBA d2 AF||

